swiss/communes/0445.svg

<?xml version="1.0" encoding="UTF-8" standalone="no"?>
<svg
   xmlns:dc="http://purl.org/dc/elements/1.1/"
   xmlns:cc="http://web.resource.org/cc/"
   xmlns:rdf="http://www.w3.org/1999/02/22-rdf-syntax-ns#"
   xmlns:svg="http://www.w3.org/2000/svg"
   xmlns="http://www.w3.org/2000/svg"
   xmlns:xlink="http://www.w3.org/1999/xlink"
   xmlns:sodipodi="http://sodipodi.sourceforge.net/DTD/sodipodi-0.dtd"
   xmlns:inkscape="http://www.inkscape.org/namespaces/inkscape"
   height="763"
   width="603"
   version="1.0"
   id="svg20"
   sodipodi:version="0.32"
   inkscape:version="0.44.1"
   sodipodi:docname="Sonvilier-coat of arms.svg"
   sodipodi:docbase="F:\Mis Documentos\Mis imágenes\Encyclopédie\Escudos de Suiza\Escudos ya hechos">
  <metadata
     id="metadata31">
    <rdf:RDF>
      <cc:Work
         rdf:about="">
        <dc:format>image/svg+xml</dc:format>
        <dc:type
           rdf:resource="http://purl.org/dc/dcmitype/StillImage" />
        <dc:date>07-AUG-2006</dc:date>
        <dc:creator>
          <cc:Agent>
            <dc:title>Jérôme BLUM (wagner51)</dc:title>
          </cc:Agent>
        </dc:creator>
        <cc:license
           rdf:resource="http://creativecommons.org/licenses/GPL/2.0/" />
        <dc:coverage />
        <dc:description>Gabarit pour le Projet:Blasons de WIkipédia</dc:description>
        <dc:subject>
          <rdf:Bag>
            <rdf:li>blason suisse modèle gabarit projet blasons</rdf:li>
          </rdf:Bag>
        </dc:subject>
        <dc:language>fr</dc:language>
        <dc:title>Gabrit d'un blason suisse</dc:title>
      </cc:Work>
      <cc:License
         rdf:about="http://creativecommons.org/licenses/GPL/2.0/">
        <cc:permits
           rdf:resource="http://web.resource.org/cc/Reproduction" />
        <cc:permits
           rdf:resource="http://web.resource.org/cc/Distribution" />
        <cc:requires
           rdf:resource="http://web.resource.org/cc/Notice" />
        <cc:permits
           rdf:resource="http://web.resource.org/cc/DerivativeWorks" />
        <cc:requires
           rdf:resource="http://web.resource.org/cc/ShareAlike" />
        <cc:requires
           rdf:resource="http://web.resource.org/cc/SourceCode" />
      </cc:License>
    </rdf:RDF>
  </metadata>
  <defs
     id="defs29">
    <linearGradient
       id="linearGradient2893">
      <stop
         style="stop-color:#ffffff;stop-opacity:0.3137255;"
         offset="0"
         id="stop2895" />
      <stop
         id="stop2897"
         offset="0.19"
         style="stop-color:#ffffff;stop-opacity:0.25098041;" />
      <stop
         style="stop-color:#6b6b6b;stop-opacity:0.1254902;"
         offset="0.60000002"
         id="stop2901" />
      <stop
         style="stop-color:#000000;stop-opacity:0.1254902;"
         offset="1"
         id="stop2899" />
    </linearGradient>
    <linearGradient
       id="linearGradient2955">
      <stop
         style="stop-color:white;stop-opacity:0;"
         offset="0"
         id="stop2965" />
      <stop
         style="stop-color:black;stop-opacity:0.64583331;"
         offset="1"
         id="stop2959" />
    </linearGradient>
    <radialGradient
       inkscape:collect="always"
       xlink:href="#linearGradient2893"
       id="radialGradient3236"
       gradientUnits="userSpaceOnUse"
       gradientTransform="matrix(1.215027,1.531577e-24,1.464684e-23,1.266667,-839.1924,-490.4894)"
       cx="858.04236"
       cy="579.93323"
       fx="858.04236"
       fy="579.93323"
       r="300" />
  </defs>
  <sodipodi:namedview
     inkscape:window-height="682"
     inkscape:window-width="1024"
     inkscape:pageshadow="2"
     inkscape:pageopacity="0.0"
     guidetolerance="10.0"
     gridtolerance="10.0"
     objecttolerance="10.0"
     borderopacity="1.0"
     bordercolor="#666666"
     pagecolor="#ffffff"
     id="base"
     inkscape:zoom="0.34154592"
     inkscape:cx="287.5456"
     inkscape:cy="328.70042"
     inkscape:window-x="-4"
     inkscape:window-y="-4"
     inkscape:current-layer="layer2"
     showgrid="true" />
  <desc
     id="desc22">Coat of Arms of Canton of Freiburg (Fribourg)</desc>
  <g
     inkscape:groupmode="layer"
     id="layer1"
     inkscape:label="Fond écu"
     sodipodi:insensitive="true">
    <path
       id="path1899"
       d="M 1.5,1.49998 L 1.5,460.3679 C 1.5,626.6785 135.81456,761.5 301.49999,761.5 C 467.18543,761.5 601.5,626.6785 601.5,460.3679 L 601.5,1.49998 L 1.5,1.49998 z "
       style="fill:#e20909;fill-opacity:1" />
  </g>
  <g
     inkscape:groupmode="layer"
     id="layer2"
     inkscape:label="Meubles"
     sodipodi:insensitive="true">
    <g
       id="g9998">
      <path
         sodipodi:nodetypes="cccccc"
         id="path5549"
         d="M 159.02536,539.88346 C 227.35751,604.80381 328.52865,468.35161 415.45291,425.43756 L 464.97333,351.41015 C 488.67161,320.40903 462.57905,306.42672 443.59587,315.94986 L 227.22087,415.01339 C 128.76745,479.46588 139.38576,507.453 159.02536,539.88346 z "
         style="fill:white;fill-opacity:1;fill-rule:evenodd;stroke:black;stroke-width:4.27549219px;stroke-linecap:butt;stroke-linejoin:miter;stroke-opacity:1" />
      <rect
         transform="matrix(0.794032,-0.607876,0.576191,0.817315,0,0)"
         ry="0"
         rx="18.33532"
         y="435.25131"
         x="138.20187"
         height="338.13544"
         width="40.557251"
         id="rect9099"
         style="fill:white;fill-opacity:1;fill-rule:evenodd;stroke:black;stroke-width:4.88288975;stroke-miterlimit:4;stroke-dasharray:none;stroke-opacity:1" />
      <path
         transform="matrix(8.796782,-3.419932,1.781833,11.27393,-6825.317,-4466.137)"
         d="M 683.91479 608.50293 A 4.0112305 2.0056152 0 1 1  675.89233,608.50293 A 4.0112305 2.0056152 0 1 1  683.91479 608.50293 z"
         sodipodi:ry="2.0056152"
         sodipodi:rx="4.0112305"
         sodipodi:cy="608.50293"
         sodipodi:cx="679.90356"
         id="path8212"
         style="fill:white;fill-opacity:1;fill-rule:evenodd;stroke:black;stroke-width:0.41671368;stroke-miterlimit:4;stroke-dasharray:none;stroke-opacity:1"
         sodipodi:type="arc" />
      <path
         sodipodi:nodetypes="ccccsc"
         id="path4662"
         d="M 276.23485,76.103524 L 414.92373,275.79534 C 327.21766,352.09299 109.41627,448.73253 162.05288,542.24255 L 16.5758,335.76258 C -5.7854507,266.59875 59.64437,224.857 138.80733,159.65305 C 204.70224,105.37752 261.48325,58.998221 276.23485,76.103524 z "
         style="fill:white;fill-opacity:1;fill-rule:evenodd;stroke:black;stroke-width:4.27549219px;stroke-linecap:butt;stroke-linejoin:miter;stroke-opacity:1" />
      <path
         sodipodi:nodetypes="ccscsc"
         id="path6436"
         d="M 465.50246,314.38512 C 479.92292,320.25366 497.51589,348.32949 516.08119,383.21177 C 539.82915,424.20322 452.18657,489.00925 423.39942,531.78302 C 383.79186,590.6344 320.06912,651.64961 329.41389,715.86258 C 248.32457,610.08708 320.50304,565.55496 409.66595,431.86482 C 452.28555,367.96139 475.21903,337.45516 465.50246,314.38512 z "
         style="fill:white;fill-opacity:1;fill-rule:evenodd;stroke:black;stroke-width:4.27549219px;stroke-linecap:butt;stroke-linejoin:miter;stroke-opacity:1" />
    </g>
  </g>
  <g
     inkscape:groupmode="layer"
     id="layer3"
     inkscape:label="Reflet final"
     style="display:inline"
     sodipodi:insensitive="true">
    <path
       style="fill:url(#radialGradient3236);fill-opacity:1"
       d="M 1.5,1.5 L 1.5,460.3679 C 1.5,626.67854 135.81454,761.5 301.49993,761.5 C 467.1854,761.5 601.5,626.67854 601.5,460.3679 L 601.5,1.5 L 1.5,1.5 z "
       id="path2346" />
  </g>
  <g
     inkscape:groupmode="layer"
     id="layer4"
     inkscape:label="Contour final"
     style="display:inline"
     sodipodi:insensitive="true">
    <path
       style="fill:none;fill-opacity:1;stroke:#000000;stroke-width:3;stroke-miterlimit:4;stroke-dasharray:none;stroke-opacity:1"
       d="M 1.5,1.5 L 1.5,460.36794 C 1.5,626.67854 135.81454,761.5 301.49993,761.5 C 467.1854,761.5 601.5,626.67854 601.5,460.36794 L 601.5,1.5 L 1.5,1.5 z "
       id="path3239" />
  </g>
</svg>

<svg xmlns="http://www.w3.org/2000/svg" xmlns:xlink="http://www.w3.org/1999/xlink" height="763" width="603" version="1.0"><defs><radialGradient xlink:href="#a" id="b" gradientUnits="userSpaceOnUse" gradientTransform="matrix(1.21503 0 0 1.26667 -839.192 -490.49)" cx="858.042" cy="579.933" fx="858.042" fy="579.933" r="300"/><linearGradient id="a"><stop style="stop-color:#fff;stop-opacity:.3137255" offset="0"/><stop offset=".19" style="stop-color:#fff;stop-opacity:.25098041"/><stop style="stop-color:#6b6b6b;stop-opacity:.1254902" offset=".6"/><stop style="stop-color:#000;stop-opacity:.1254902" offset="1"/></linearGradient></defs><path d="M1.5 1.5v458.868c0 166.31 134.315 301.132 300 301.132s300-134.822 300-301.132V1.5H1.5z" style="fill:#e20909;fill-opacity:1"/><path d="M159.025 539.883c68.333 64.92 169.504-71.531 256.428-114.445l49.52-74.028c23.699-31.001-2.394-44.983-21.377-35.46L227.22 415.013c-98.454 64.453-87.835 92.44-68.196 124.87z" style="fill:#fff;fill-opacity:1;fill-rule:evenodd;stroke:#000;stroke-width:4.27549219px;stroke-linecap:butt;stroke-linejoin:miter;stroke-opacity:1"/><rect transform="matrix(.79403 -.60788 .5762 .81732 0 0)" ry="0" rx="18.335" y="435.251" x="138.202" height="338.135" width="40.557" style="fill:#fff;fill-opacity:1;fill-rule:evenodd;stroke:#000;stroke-width:4.88288975;stroke-miterlimit:4;stroke-dasharray:none;stroke-opacity:1"/><path transform="matrix(8.79678 -3.41993 1.78183 11.27393 -6825.317 -4466.137)" d="M683.915 608.503a4.011 2.006 0 1 1-8.023 0 4.011 2.006 0 1 1 8.023 0z" style="fill:#fff;fill-opacity:1;fill-rule:evenodd;stroke:#000;stroke-width:.41671368;stroke-miterlimit:4;stroke-dasharray:none;stroke-opacity:1"/><path d="m276.235 76.104 138.689 199.691c-87.706 76.298-305.508 172.938-252.871 266.448L16.576 335.763c-22.361-69.164 43.068-110.906 122.231-176.11 65.895-54.275 122.676-100.655 137.428-83.55zM465.502 314.385c14.42 5.869 32.014 33.944 50.58 68.827 23.747 40.991-63.895 105.797-92.683 148.571-39.607 58.851-103.33 119.867-93.985 184.08-81.09-105.776-8.911-150.308 80.252-283.998 42.62-63.904 65.553-94.41 55.836-117.48z" style="fill:#fff;fill-opacity:1;fill-rule:evenodd;stroke:#000;stroke-width:4.27549219px;stroke-linecap:butt;stroke-linejoin:miter;stroke-opacity:1"/><g style="display:inline"><path style="fill:url(#b);fill-opacity:1" d="M1.5 1.5v458.868c0 166.31 134.315 301.132 300 301.132s300-134.821 300-301.132V1.5H1.5z"/></g><g style="display:inline"><path style="fill:none;fill-opacity:1;stroke:#000;stroke-width:3;stroke-miterlimit:4;stroke-dasharray:none;stroke-opacity:1" d="M1.5 1.5v458.868c0 166.31 134.315 301.132 300 301.132s300-134.821 300-301.132V1.5H1.5z"/></g></svg>
